packages/components/src/telekom/icons/action/notification/default.svg

<svg height="24" width="24" xmlns="http://www.w3.org/2000/svg"><path d="m22 16.95c-2.35-2.35-2.7-4.65-2.8-5.8l-.2-1.75c-.25-3.15-2.55-5.6-5.5-6.25v-.15c0-.85-.65-1.5-1.5-1.5s-1.5.65-1.5 1.5v.15c-2.95.65-5.25 3.1-5.5 6.25l-.15 1.75c-.15 1.1-.5 3.4-2.85 5.8v3.55h7.05c.25 1.4 1.45 2.5 2.95 2.5s2.7-1.1 2.95-2.5h7.05zm-1.5 2.05h-17v-1.45c1.6-1.7 2.6-3.9 2.8-6.25l.15-1.75c.3-2.9 2.65-5.05 5.55-5.05s5.25 2.15 5.5 5.05l.15 1.75c.2 2.35 1.2 4.55 2.8 6.25v1.45z" fill="#262626" fill-rule="evenodd"/></svg>

<svg width="24" height="24" xmlns="http://www.w3.org/2000/svg"><path d="M22 16.95c-2.35-2.35-2.7-4.65-2.8-5.8L19 9.4c-.25-3.15-2.55-5.6-5.5-6.25V3c0-.85-.65-1.5-1.5-1.5s-1.5.65-1.5 1.5v.15C7.55 3.8 5.25 6.25 5 9.4l-.15 1.75c-.15 1.1-.5 3.4-2.85 5.8v3.55h7.05C9.3 21.9 10.5 23 12 23c1.5 0 2.7-1.1 2.95-2.5H22v-3.55zM20.5 19h-17v-1.45c1.6-1.7 2.6-3.9 2.8-6.25l.15-1.75C6.75 6.65 9.1 4.5 12 4.5s5.25 2.15 5.5 5.05l.15 1.75c.2 2.35 1.2 4.55 2.8 6.25V19h.05z" fill="#000" fill-rule="evenodd"/></svg>
